Obsidian-SemiLight/actions/16s/tools-rip-video-cd.svg

<svg viewBox="0 0 16 16" xmlns="http://www.w3.org/2000/svg"><path d="m8 2a6 6.0000086 0 0 0 -6 6 6 6.0000086 0 0 0 5 5.914062v-1.015624a5 5 0 0 1 -4-4.898438 5 5 0 0 1 5-5 5 5 0 0 1 5 5h1a6 6.0000086 0 0 0 -6-6zm0 2c-2.209139 0-4 1.790861-4 4h2c0-1.1045695.8954305-2 2-2zm.5 4c-.831 0-1.5.669-1.5 1.5 0 .6542.418077 1.202203 1 1.408203v3.091797h4v-2-1c.554 0 1-.446 1-1s-.446-1-1-1-1 .446-1 1h-1.0917969c.05566-.1572.0917969-.3232.0917969-.5 0-.831-.669-1.5-1.5-1.5zm3.5 4 2 2v-4zm-3-1h2v2h-2z" fill="#4d4d4d"/></svg>

<svg xmlns="http://www.w3.org/2000/svg" viewBox="0 0 16 16">
  <defs id="defs3051">
    <style type="text/css" id="current-color-scheme">
      .ColorScheme-Text {
        color:#4d4d4d;
      }
      </style>
  </defs>
 <path style="fill:currentColor;fill-opacity:1;stroke:none" 
     d="M 8 2 A 6 6.0000086 0 0 0 2 8 A 6 6.0000086 0 0 0 7 13.914062 L 7 12.898438 A 5 5 0 0 1 3 8 A 5 5 0 0 1 8 3 A 5 5 0 0 1 13 8 L 14 8 A 6 6.0000086 0 0 0 8 2 z M 8 4 C 5.790861 4 4 5.790861 4 8 L 6 8 C 6 6.8954305 6.8954305 6 8 6 L 8 4 z M 8.5 8 C 7.669 8 7 8.669 7 9.5 C 7 10.1542 7.418077 10.702203 8 10.908203 L 8 14 L 12 14 L 12 12 L 12 11 C 12.554 11 13 10.554 13 10 C 13 9.446 12.554 9 12 9 C 11.446 9 11 9.446 11 10 L 9.9082031 10 C 9.9638631 9.8428 10 9.6768 10 9.5 C 10 8.669 9.331 8 8.5 8 z M 12 12 L 14 14 L 14 10 L 12 12 z M 9 11 L 11 11 L 11 13 L 9 13 L 9 11 z "
     class="ColorScheme-Text"
     />
</svg>
